src/assets/icons/github.svg

<?xml version="1.0" encoding="UTF-8" standalone="no"?>
<svg
   width="51"
   height="50"
   viewBox="0 0 51 50"
   fill="none"
   version="1.1"
   id="svg1"
   sodipodi:docname="github.svg"
   xmlns:inkscape="http://www.inkscape.org/namespaces/inkscape"
   xmlns:sodipodi="http://sodipodi.sourceforge.net/DTD/sodipodi-0.dtd"
   xmlns="http://www.w3.org/2000/svg"
   xmlns:svg="http://www.w3.org/2000/svg">
  <sodipodi:namedview
     id="namedview1"
     pagecolor="#505050"
     bordercolor="#ffffff"
     borderopacity="1"
     inkscape:showpageshadow="0"
     inkscape:pageopacity="0"
     inkscape:pagecheckerboard="1"
     inkscape:deskcolor="#505050" />
  <g
     clip-path="url(#clip0_1479_21481)"
     id="g1"
     transform="matrix(0.85598142,0,0,0.82207725,4.1454886,4.0415936)">
    <path
       fill-rule="evenodd"
       clip-rule="evenodd"
       d="m 25.557,0.520996 c -13.8047,0 -24.998406,11.236504 -24.998406,25.100604 0,11.0876 7.162486,20.4951 17.098406,23.8144 1.25,0.2306 1.7063,-0.5444 1.7063,-1.2095 0,-0.5961 -0.0219,-2.1742 -0.0344,-4.2684 C 12.3742,45.4751 10.907,40.5933 10.907,40.5933 9.7711,37.6944 8.13204,36.9226 8.13204,36.9226 5.86173,35.3648 8.30389,35.3962 8.30389,35.3962 10.8117,35.5734 12.132,37.983 12.132,37.983 c 2.2313,3.8354 5.8516,2.7279 7.2766,2.0848 0.2266,-1.6221 0.8734,-2.728 1.5875,-3.3554 C 15.4445,36.0786 9.60858,33.9263 9.60858,24.3087 c 0,-2.7405 0.97342,-4.9806 2.57342,-6.736 -0.2578,-0.6353 -1.1156,-3.186 0.2438,-6.6418 0,0 2.1,-0.6746 6.875,2.5726 1.9953,-0.5569 4.1328,-0.8346 6.2594,-0.8455 2.1234,0.0109 4.2625,0.2886 6.2593,0.8455 4.7719,-3.2472 6.8672,-2.5726 6.8672,-2.5726 1.3641,3.4558 0.5063,6.0065 0.2484,6.6418 1.6032,1.7554 2.5704,3.9955 2.5704,6.736 0,9.6412 -5.8453,11.7636 -11.4141,12.3848 0.8969,0.7749 1.6969,2.306 1.6969,4.6481 0,3.3554 -0.0313,6.0614 -0.0313,6.8849 0,0.6714 0.4501,1.4526 1.7188,1.2064 C 43.4024,46.1072 50.5586,36.706 50.5586,25.6216 50.5586,11.7575 39.3648,0.520996 25.557,0.520996 Z"
       fill="#000000"
       id="path1" />
  </g>
  <defs
     id="defs1">
    <clipPath
       id="clip0_1479_21481">
      <rect
         width="50"
         height="50"
         fill="#ffffff"
         transform="translate(0.558594)"
         id="rect1"
         x="0"
         y="0" />
    </clipPath>
  </defs>
</svg>

<svg width="51" height="50" viewBox="0 0 51 50" fill="none" xmlns="http://www.w3.org/2000/svg">
<g clip-path="url(#clip0_1479_21481)">
<path fill-rule="evenodd" clip-rule="evenodd" d="M25.557 0.520996C11.7523 0.520996 0.558594 11.7575 0.558594 25.6216C0.558594 36.7092 7.72108 46.1167 17.657 49.436C18.907 49.6666 19.3633 48.8916 19.3633 48.2265C19.3633 47.6304 19.3414 46.0523 19.3289 43.9581C12.3742 45.4751 10.907 40.5933 10.907 40.5933C9.7711 37.6944 8.13204 36.9226 8.13204 36.9226C5.86173 35.3648 8.30389 35.3962 8.30389 35.3962C10.8117 35.5734 12.132 37.983 12.132 37.983C14.3633 41.8184 17.9836 40.7109 19.4086 40.0678C19.6352 38.4457 20.282 37.3398 20.9961 36.7124C15.4445 36.0786 9.60858 33.9263 9.60858 24.3087C9.60858 21.5682 10.582 19.3281 12.182 17.5727C11.9242 16.9374 11.0664 14.3867 12.4258 10.9309C12.4258 10.9309 14.5258 10.2563 19.3008 13.5035C21.2961 12.9466 23.4336 12.6689 25.5602 12.658C27.6836 12.6689 29.8227 12.9466 31.8195 13.5035C36.5914 10.2563 38.6867 10.9309 38.6867 10.9309C40.0508 14.3867 39.193 16.9374 38.9351 17.5727C40.5383 19.3281 41.5055 21.5682 41.5055 24.3087C41.5055 33.9499 35.6602 36.0723 30.0914 36.6935C30.9883 37.4684 31.7883 38.9995 31.7883 41.3416C31.7883 44.697 31.757 47.403 31.757 48.2265C31.757 48.8979 32.2071 49.6791 33.4758 49.4329C43.4024 46.1072 50.5586 36.706 50.5586 25.6216C50.5586 11.7575 39.3648 0.520996 25.557 0.520996Z" fill="black"/>
</g>
<defs>
<clipPath id="clip0_1479_21481">
<rect width="50" height="50" fill="white" transform="translate(0.558594)"/>
</clipPath>
</defs>
</svg>
